;FLAVOR:Marlin
;TIME:7440
;Filament used: 2.68959m
;Layer height: 0.12
;MINX:139.46
;MINY:77.96
;MINZ:0.12
;MAXX:170.54
;MAXY:237.04
;MAXZ:12
;Generated with Cura_SteamEngine 4.5.0
M140 S60
M105
M190 S60
M104 S205
M105
M109 S205
M82 ;absolute extrusion mode
M201 X500.00 Y500.00 Z100.00 E5000.00 ;Setup machine max acceleration
M203 X500.00 Y500.00 Z10.00 E50.00 ;Setup machine max feedrate
M204 P500.00 R1000.00 T500.00 ;Setup Print/Retract/Travel acceleration
M205 X8.00 Y8.00 Z0.40 E5.00 ;Setup Jerk
M220 S100 ;Reset Feedrate
M221 S100 ;Reset Flowrate

G28 ;Home
M420 S1 Z2 ;Enable ABL using saved Mesh and Fade Height

G92 E0 ;Reset Extruder
G1 Z2.0 F3000 ;Move Z Axis up
G1 X10.1 Y20 Z0.28 F5000.0 ;Move to start position
G1 X10.1 Y200.0 Z0.28 F1500.0 E15 ;Draw the first line
G1 X10.4 Y200.0 Z0.28 F5000.0 ;Move to side a little
G1 X10.4 Y20 Z0.28 F1500.0 E30 ;Draw the second line
G92 E0 ;Reset Extruder
G1 Z2.0 F3000 ;Move Z Axis up

G92 E0
G92 E0
G1 F1500 E-6
;LAYER_COUNT:100
;LAYER:0
M107
M205 X20 Y20
G0 F7500 X140.953 Y83.597 Z0.12
;TYPE:SKIRT
G1 F1500 E0
G1 X141.458 Y82.797 E0.02266
G1 X142.029 Y82.042 E0.04532
G1 X142.661 Y81.338 E0.06798
G1 X143.351 Y80.69 E0.09065
G1 X144.093 Y80.103 E0.1133
G1 X144.882 Y79.58 E0.13597
G1 X145.712 Y79.126 E0.15863
G1 X146.578 Y78.743 E0.1813
G1 X147.472 Y78.435 E0.20395
G1 X148.39 Y78.203 E0.22662
G1 X149.324 Y78.05 E0.24929
G1 X150.355 Y77.973 E0.27405
G1 X150.99 Y77.96 E0.28926
G1 X158.793 Y77.961 E0.47612
G1 X159.491 Y77.971 E0.49283
G1 X160.436 Y78.025 E0.5155
G1 X161.373 Y78.158 E0.53816
G1 X162.296 Y78.369 E0.56084
G1 X163.197 Y78.658 E0.5835
G1 X164.07 Y79.022 E0.60615
G1 X164.91 Y79.459 E0.62882
G1 X165.71 Y79.964 E0.65148
G1 X166.465 Y80.536 E0.67416
G1 X167.168 Y81.169 E0.69682
G1 X167.815 Y81.859 E0.71947
G1 X168.402 Y82.601 E0.74212
G1 X168.925 Y83.39 E0.76479
G1 X169.378 Y84.221 E0.78746
G1 X169.76 Y85.087 E0.81012
G1 X170.068 Y85.982 E0.83279
G1 X170.298 Y86.9 E0.85545
G1 X170.451 Y87.834 E0.87812
G1 X170.527 Y88.855 E0.90264
G1 X170.54 Y89.49 E0.91785
G1 X170.54 Y225.104 E4.16543
G1 X170.53 Y225.97 E4.18617
G1 X170.478 Y226.915 E4.20884
G1 X170.347 Y227.852 E4.2315
G1 X170.137 Y228.775 E4.25416
G1 X169.85 Y229.676 E4.27681
G1 X169.488 Y230.551 E4.29948
G1 X169.053 Y231.391 E4.32214
G1 X168.549 Y232.192 E4.3448
G1 X167.979 Y232.948 E4.36747
G1 X167.348 Y233.652 E4.39011
G1 X166.659 Y234.301 E4.41278
G1 X165.917 Y234.89 E4.43547
G1 X165.129 Y235.413 E4.45812
G1 X164.3 Y235.869 E4.48077
G1 X163.434 Y236.252 E4.50345
G1 X162.54 Y236.561 E4.5261
G1 X161.623 Y236.794 E4.54876
G1 X160.689 Y236.948 E4.57143
G1 X159.645 Y237.027 E4.5965
G1 X159.01 Y237.04 E4.61171
G1 X151.223 Y237.039 E4.79819
G1 X150.525 Y237.03 E4.8149
G1 X149.58 Y236.978 E4.83757
G1 X148.643 Y236.846 E4.86023
G1 X147.72 Y236.636 E4.8829
G1 X146.818 Y236.348 E4.90557
G1 X145.944 Y235.986 E4.92823
G1 X145.104 Y235.55 E4.95089
G1 X144.303 Y235.046 E4.97355
G1 X143.548 Y234.476 E4.99621
G1 X142.843 Y233.844 E5.01888
G1 X142.195 Y233.154 E5.04155
G1 X141.607 Y232.413 E5.0642
G1 X141.084 Y231.624 E5.08687
G1 X140.629 Y230.794 E5.10954
G1 X140.246 Y229.929 E5.13219
G1 X139.937 Y229.034 E5.15486
G1 X139.705 Y228.117 E5.17752
G1 X139.551 Y227.183 E5.20019
G1 X139.473 Y226.134 E5.22538
G1 X139.46 Y225.498 E5.24061
G1 X139.46 Y89.834 E8.4894
G1 X139.47 Y89.017 E8.50896
G1 X139.523 Y88.073 E8.5316
G1 X139.655 Y87.135 E8.55429
G1 X139.866 Y86.213 E8.57694
G1 X140.154 Y85.312 E8.59959
G1 X140.517 Y84.438 E8.62225
G1 X140.953 Y83.597 E8.64494
G0 F7500 X141.43 Y83.732
G1 F1500 X141.934 Y82.955 E8.66712
G1 X142.502 Y82.225 E8.68927
G1 X143.132 Y81.546 E8.71145
G1 X143.818 Y80.924 E8.73362
G1 X144.555 Y80.364 E8.75579
G1 X145.337 Y79.869 E8.77795
G1 X146.16 Y79.444 E8.80013
G1 X147.016 Y79.091 E8.82231
G1 X147.899 Y78.813 E8.84448
G1 X148.803 Y78.613 E8.86665
G1 X149.721 Y78.491 E8.88882
G1 X150.369 Y78.453 E8.90437
G1 X150.99 Y78.44 E8.91924
G1 X158.787 Y78.441 E9.10596
G1 X159.485 Y78.451 E9.12268
G1 X160.409 Y78.504 E9.14484
G1 X161.325 Y78.637 E9.16701
G1 X162.227 Y78.848 E9.18919
G1 X163.106 Y79.137 E9.21135
G1 X163.958 Y79.5 E9.23353
G1 X164.775 Y79.935 E9.25569
G1 X165.552 Y80.439 E9.27787
G1 X166.282 Y81.009 E9.30005
G1 X166.96 Y81.639 E9.32221
G1 X167.581 Y82.325 E9.34437
G1 X168.141 Y83.063 E9.36656
G1 X168.635 Y83.846 E9.38873
G1 X169.06 Y84.668 E9.41089
G1 X169.412 Y85.525 E9.43308
G1 X169.689 Y86.408 E9.45524
G1 X169.889 Y87.312 E9.47741
G1 X170.01 Y88.23 E9.49958
G1 X170.047 Y88.869 E9.51491
G1 X170.06 Y89.49 E9.52979
G1 X170.06 Y225.104 E12.77737
G1 X170.05 Y225.964 E12.79797
G1 X169.999 Y226.888 E12.82013
G1 X169.868 Y227.805 E12.84231
G1 X169.658 Y228.706 E12.86447
G1 X169.372 Y229.587 E12.88665
G1 X169.01 Y230.439 E12.90882
G1 X168.576 Y231.257 E12.93099
G1 X168.074 Y232.035 E12.95317
G1 X167.506 Y232.766 E12.97533
G1 X166.877 Y233.445 E12.9975
G1 X166.192 Y234.068 E13.01967
G1 X165.455 Y234.629 E13.04185
G1 X164.673 Y235.125 E13.06403
G1 X163.851 Y235.551 E13.0862
G1 X162.996 Y235.905 E13.10836
G1 X162.113 Y236.184 E13.13054
G1 X161.209 Y236.385 E13.15271
G1 X160.292 Y236.508 E13.17487
G1 X159.631 Y236.547 E13.19073
G1 X159.01 Y236.56 E13.2056
G1 X151.229 Y236.559 E13.39194
G1 X150.531 Y236.55 E13.40865
G1 X149.606 Y236.498 E13.43084
G1 X148.69 Y236.367 E13.453
G1 X147.788 Y236.157 E13.47518
G1 X146.908 Y235.87 E13.49734
G1 X146.056 Y235.508 E13.51951
G1 X145.238 Y235.073 E13.5417
G1 X144.461 Y234.57 E13.56386
G1 X143.73 Y234.002 E13.58603
G1 X143.051 Y233.373 E13.6082
G1 X142.428 Y232.687 E13.63039
G1 X141.868 Y231.951 E13.65253
G1 X141.372 Y231.169 E13.67471
G1 X140.946 Y230.346 E13.6969
G1 X140.593 Y229.491 E13.71905
G1 X140.315 Y228.608 E13.74122
G1 X140.114 Y227.704 E13.7634
G1 X139.992 Y226.786 E13.78558
G1 X139.953 Y226.121 E13.80153
G1 X139.94 Y225.498 E13.81645
G1 X139.94 Y89.834 E17.06524
G1 X139.95 Y89.024 E17.08464
G1 X140.002 Y88.1 E17.1068
G1 X140.135 Y87.183 E17.12899
G1 X140.345 Y86.282 E17.15114
G1 X140.633 Y85.402 E17.17332
G1 X140.995 Y84.55 E17.19549
G1 X141.43 Y83.732 E17.21767
G0 F7500 X141.907 Y83.87
G1 F1500 X142.409 Y83.117 E17.23934
G1 X142.975 Y82.412 E17.26099
G1 X143.602 Y81.759 E17.28267
G1 X144.284 Y81.164 E17.30435
G1 X145.015 Y80.631 E17.32601
G1 X145.791 Y80.166 E17.34768
G1 X146.605 Y79.77 E17.36935
G1 X147.451 Y79.448 E17.39103
G1 X148.321 Y79.202 E17.41268
G1 X149.21 Y79.033 E17.43435
G1 X150.382 Y78.933 E17.46252
G1 X150.99 Y78.92 E17.47708
G1 X158.78 Y78.921 E17.66363
G1 X159.478 Y78.931 E17.68035
G1 X160.381 Y78.984 E17.70201
G1 X161.276 Y79.116 E17.72368
G1 X162.156 Y79.327 E17.74535
G1 X163.014 Y79.615 E17.76702
G1 X163.843 Y79.978 E17.78869
G1 X164.637 Y80.412 E17.81036
G1 X165.389 Y80.915 E17.83203
G1 X166.095 Y81.482 E17.85371
G1 X166.747 Y82.109 E17.87537
G1 X167.341 Y82.791 E17.89703
G1 X167.873 Y83.523 E17.9187
G1 X168.338 Y84.299 E17.94037
G1 X168.733 Y85.113 E17.96203
G1 X169.055 Y85.959 E17.98371
G1 X169.3 Y86.83 E18.00538
G1 X169.468 Y87.719 E18.02704
G1 X169.567 Y88.882 E18.05499
G1 X169.58 Y89.49 E18.06956
G1 X169.58 Y225.104 E21.31715
G1 X169.57 Y225.958 E21.3376
G1 X169.519 Y226.861 E21.35926
G1 X169.388 Y227.757 E21.38094
G1 X169.179 Y228.637 E21.4026
G1 X168.893 Y229.495 E21.42426
G1 X168.532 Y230.325 E21.44594
G1 X168.099 Y231.12 E21.46761
G1 X167.598 Y231.873 E21.48927
G1 X167.033 Y232.58 E21.51095
G1 X166.407 Y233.233 E21.53261
G1 X165.726 Y233.829 E21.55428
G1 X164.995 Y234.362 E21.57595
G1 X164.219 Y234.829 E21.59763
G1 X163.406 Y235.225 E21.61929
G1 X162.561 Y235.548 E21.64095
G1 X161.69 Y235.796 E21.66264
G1 X160.801 Y235.965 E21.68431
G1 X159.618 Y236.067 E21.71275
G1 X159.01 Y236.08 E21.72731
G1 X151.235 Y236.079 E21.9135
G1 X150.537 Y236.07 E21.93022
G1 X149.634 Y236.019 E21.95187
G1 X148.738 Y235.887 E21.97356
G1 X147.858 Y235.678 E21.99522
G1 X147 Y235.391 E22.01689
G1 X146.17 Y235.03 E22.03856
G1 X145.376 Y234.597 E22.06022
G1 X144.622 Y234.095 E22.08191
G1 X143.916 Y233.529 E22.10358
G1 X143.263 Y232.903 E22.12525
G1 X142.668 Y232.222 E22.1469
G1 X142.135 Y231.49 E22.16859
G1 X141.669 Y230.715 E22.19024
G1 X141.273 Y229.901 E22.21192
G1 X140.95 Y229.056 E22.23358
G1 X140.703 Y228.185 E22.25526
G1 X140.534 Y227.296 E22.27693
G1 X140.433 Y226.108 E22.30548
G1 X140.42 Y225.498 E22.3201
G1 X140.42 Y89.834 E25.56888
G1 X140.43 Y89.03 E25.58814
G1 X140.482 Y88.127 E25.6098
G1 X140.614 Y87.232 E25.63146
G1 X140.824 Y86.352 E25.65313
G1 X141.111 Y85.494 E25.67479
G1 X141.473 Y84.664 E25.69648
G1 X141.907 Y83.87 E25.71815
G1 F1500 E19.71815
;MESH:Alignment.stl
G0 F7500 X150.9 Y225.6
;TYPE:WALL-OUTER
G1 F1500 E25.71815
G1 X150.9 Y89.4 E28.97977
G1 X159.1 Y89.4 E29.17614
G1 X159.1 Y225.6 E32.43776
G1 X150.9 Y225.6 E32.63413
G1 F1500 E26.63413
G0 F7500 X156.688 Y111.86
G1 F1500 E32.63413
G1 X157.013 Y111.589 E32.64426
G1 X157.297 Y111.273 E32.65443
G1 X157.53 Y110.92 E32.66456
G1 X157.71 Y110.536 E32.67472
G1 X157.832 Y110.131 E32.68485
G1 X157.893 Y109.711 E32.69501
G1 X157.893 Y109.289 E32.70512
G1 X157.832 Y108.869 E32.71528
G1 X157.71 Y108.464 E32.72541
G1 X157.53 Y108.08 E32.73557
G1 X157.297 Y107.727 E32.74569
G1 X157.013 Y107.411 E32.75587
G1 X156.688 Y107.14 E32.766
G1 X156.326 Y106.92 E32.77615
G1 X155.937 Y106.754 E32.78628
G1 X155.526 Y106.647 E32.79645
G1 X155.106 Y106.602 E32.80656
G1 X154.684 Y106.617 E32.81667
G1 X154.267 Y106.693 E32.82682
G1 X153.865 Y106.83 E32.83699
G1 X153.489 Y107.024 E32.84713
G1 X153.144 Y107.27 E32.85727
G1 X152.839 Y107.564 E32.86742
G1 X152.58 Y107.899 E32.87756
G1 X152.373 Y108.269 E32.88771
G1 X152.222 Y108.665 E32.89786
G1 X152.13 Y109.078 E32.90799
G1 X152.099 Y109.5 E32.91813
G1 X152.13 Y109.922 E32.92826
G1 X152.222 Y110.335 E32.93839
G1 X152.373 Y110.731 E32.94854
G1 X152.58 Y111.101 E32.95869
G1 X152.839 Y111.436 E32.96883
G1 X153.144 Y111.73 E32.97898
G1 X153.489 Y111.976 E32.98913
G1 X153.865 Y112.17 E32.99926
G1 X154.267 Y112.307 E33.00943
G1 X154.684 Y112.383 E33.01958
G1 X155.106 Y112.398 E33.02969
G1 X155.526 Y112.353 E33.03981
G1 X155.937 Y112.246 E33.04998
G1 X156.326 Y112.08 E33.06011
G1 X156.688 Y111.86 E33.07025
G0 F7500 X156.968 Y112.252
;TYPE:WALL-INNER
G1 F1500 X157.347 Y111.936 E33.08207
G1 X157.678 Y111.567 E33.09394
G1 X157.95 Y111.155 E33.10576
G1 X158.159 Y110.708 E33.11758
G1 X158.302 Y110.235 E33.12941
G1 X158.373 Y109.746 E33.14124
G1 X158.373 Y109.254 E33.15302
G1 X158.302 Y108.765 E33.16486
G1 X158.159 Y108.292 E33.17669
G1 X157.95 Y107.845 E33.18851
G1 X157.678 Y107.433 E33.20033
G1 X157.347 Y107.064 E33.2122
G1 X156.968 Y106.748 E33.22402
G1 X156.546 Y106.492 E33.23584
G1 X156.093 Y106.298 E33.24764
G1 X155.613 Y106.174 E33.25951
G1 X155.123 Y106.121 E33.27131
G1 X154.632 Y106.139 E33.28308
G1 X154.146 Y106.227 E33.29491
G1 X153.677 Y106.387 E33.30677
G1 X153.238 Y106.613 E33.3186
G1 X152.836 Y106.9 E33.33043
G1 X152.481 Y107.243 E33.34225
G1 X152.178 Y107.634 E33.35409
G1 X151.937 Y108.065 E33.36592
G1 X151.761 Y108.527 E33.37776
G1 X151.654 Y109.008 E33.38956
G1 X151.618 Y109.5 E33.40137
G1 X151.654 Y109.992 E33.41319
G1 X151.761 Y110.473 E33.42499
G1 X151.937 Y110.935 E33.43683
G1 X152.178 Y111.366 E33.44865
G1 X152.481 Y111.757 E33.4605
G1 X152.836 Y112.1 E33.47232
G1 X153.238 Y112.387 E33.48415
G1 X153.677 Y112.613 E33.49597
G1 X154.146 Y112.773 E33.50784
G1 X154.632 Y112.861 E33.51966
G1 X155.123 Y112.879 E33.53143
G1 X155.613 Y112.826 E33.54323
G1 X156.093 Y112.702 E33.55511
G1 X156.546 Y112.508 E33.56691
G1 X156.968 Y112.252 E33.57873
G1 F1500 E27.57873
G0 F7500 X156.688 Y143.86
;TYPE:WALL-OUTER
G1 F1500 E33.57873
G1 X157.013 Y143.589 E33.58886
G1 X157.297 Y143.273 E33.59903
G1 X157.53 Y142.92 E33.60916
G1 X157.71 Y142.536 E33.61932
G1 X157.832 Y142.131 E33.62945
G1 X157.893 Y141.711 E33.63961
G1 X157.893 Y141.289 E33.64972
G1 X157.832 Y140.869 E33.65988
G1 X157.71 Y140.464 E33.67001
G1 X157.53 Y140.08 E33.68017
G1 X157.297 Y139.727 E33.69029
G1 X157.013 Y139.411 E33.70047
G1 X156.688 Y139.14 E33.7106
G1 X156.326 Y138.92 E33.72075
G1 X155.937 Y138.754 E33.73088
G1 X155.526 Y138.647 E33.74105
G1 X155.106 Y138.602 E33.75116
G1 X154.684 Y138.617 E33.76127
G1 X154.267 Y138.693 E33.77142
G1 X153.865 Y138.83 E33.78159
G1 X153.489 Y139.024 E33.79173
G1 X153.144 Y139.27 E33.80187
G1 X152.839 Y139.564 E33.81202
G1 X152.58 Y139.899 E33.82216
G1 X152.373 Y140.269 E33.83231
G1 X152.222 Y140.665 E33.84246
G1 X152.13 Y141.078 E33.85259
G1 X152.099 Y141.5 E33.86273
G1 X152.13 Y141.922 E33.87286
G1 X152.222 Y142.335 E33.88299
G1 X152.373 Y142.731 E33.89314
G1 X152.58 Y143.101 E33.90329
G1 X152.839 Y143.436 E33.91343
G1 X153.144 Y143.73 E33.92358
G1 X153.489 Y143.976 E33.93373
G1 X153.865 Y144.17 E33.94386
G1 X154.267 Y144.307 E33.95403
G1 X154.684 Y144.383 E33.96418
G1 X155.106 Y144.398 E33.97429
G1 X155.526 Y144.353 E33.98441
G1 X155.937 Y144.246 E33.99458
G1 X156.326 Y144.08 E34.00471
G1 X156.688 Y143.86 E34.01485
G0 F7500 X156.968 Y144.252
;TYPE:WALL-INNER
G1 F1500 X157.347 Y143.936 E34.02667
G1 X157.678 Y143.567 E34.03854
G1 X157.95 Y143.155 E34.05036
G1 X158.159 Y142.708 E34.06218
G1 X158.302 Y142.235 E34.07401
G1 X158.373 Y141.746 E34.08584
G1 X158.373 Y141.254 E34.09762
G1 X158.302 Y140.765 E34.10946
G1 X158.159 Y140.292 E34.12129
G1 X157.95 Y139.845 E34.13311
G1 X157.678 Y139.433 E34.14493
G1 X157.347 Y139.064 E34.1568
G1 X156.968 Y138.748 E34.16862
G1 X156.546 Y138.492 E34.18044
G1 X156.093 Y138.298 E34.19224
G1 X155.613 Y138.174 E34.20411
G1 X155.123 Y138.121 E34.21591
G1 X154.632 Y138.139 E34.22768
G1 X154.146 Y138.227 E34.23951
G1 X153.677 Y138.387 E34.25137
G1 X153.238 Y138.613 E34.2632
G1 X152.836 Y138.9 E34.27503
G1 X152.481 Y139.243 E34.28685
G1 X152.178 Y139.634 E34.29869
G1 X151.937 Y140.065 E34.31052
G1 X151.761 Y140.527 E34.32236
G1 X151.654 Y141.008 E34.33416
G1 X151.618 Y141.5 E34.34597
G1 X151.654 Y141.992 E34.35779
G1 X151.761 Y142.473 E34.36959
G1 X151.937 Y142.935 E34.38143
G1 X152.178 Y143.366 E34.39325
G1 X152.481 Y143.757 E34.4051
G1 X152.836 Y144.1 E34.41692
G1 X153.238 Y144.387 E34.42875
G1 X153.677 Y144.613 E34.44057
G1 X154.146 Y144.773 E34.45244
G1 X154.632 Y144.861 E34.46426
G1 X155.123 Y144.879 E34.47603
G1 X155.613 Y144.826 E34.48783
G1 X156.093 Y144.702 E34.49971
G1 X156.546 Y144.508 E34.51151
G1 X156.968 Y144.252 E34.52333
G1 F1500 E28.52333
G0 F7500 X156.688 Y175.86
;TYPE:WALL-OUTER
G1 F1500 E34.52333
G1 X157.013 Y175.589 E34.53346
G1 X157.297 Y175.273 E34.54363
G1 X157.53 Y174.92 E34.55376
G1 X157.71 Y174.536 E34.56392
G1 X157.832 Y174.131 E34.57405
G1 X157.893 Y173.711 E34.58421
G1 X157.893 Y173.289 E34.59432
G1 X157.832 Y172.869 E34.60448
G1 X157.71 Y172.464 E34.61461
G1 X157.53 Y172.08 E34.62477
G1 X157.297 Y171.727 E34.63489
G1 X157.013 Y171.411 E34.64507
G1 X156.688 Y171.14 E34.6552
G1 X156.326 Y170.92 E34.66535
G1 X155.937 Y170.754 E34.67548
G1 X155.526 Y170.647 E34.68565
G1 X155.106 Y170.602 E34.69576
G1 X154.684 Y170.617 E34.70587
G1 X154.267 Y170.693 E34.71602
G1 X153.865 Y170.83 E34.72619
G1 X153.489 Y171.024 E34.73633
G1 X153.144 Y171.27 E34.74647
G1 X152.839 Y171.564 E34.75662
G1 X152.58 Y171.899 E34.76676
G1 X152.373 Y172.269 E34.77691
G1 X152.222 Y172.665 E34.78706
G1 X152.13 Y173.078 E34.79719
G1 X152.099 Y173.5 E34.80733
G1 X152.13 Y173.922 E34.81746
G1 X152.222 Y174.335 E34.82759
G1 X152.373 Y174.731 E34.83774
G1 X152.58 Y175.101 E34.84789
G1 X152.839 Y175.436 E34.85803
G1 X153.144 Y175.73 E34.86818
G1 X153.489 Y175.976 E34.87833
G1 X153.865 Y176.17 E34.88846
G1 X154.267 Y176.307 E34.89863
G1 X154.684 Y176.383 E34.90878
G1 X155.106 Y176.398 E34.91889
G1 X155.526 Y176.353 E34.92901
G1 X155.937 Y176.246 E34.93918
G1 X156.326 Y176.08 E34.94931
G1 X156.688 Y175.86 E34.95945
G0 F7500 X156.968 Y176.252
;TYPE:WALL-INNER
G1 F1500 X157.347 Y175.936 E34.97127
G1 X157.678 Y175.567 E34.98314
G1 X157.95 Y175.155 E34.99496
G1 X158.159 Y174.708 E35.00678
G1 X158.302 Y174.235 E35.01861
G1 X158.373 Y173.746 E35.03044
G1 X158.373 Y173.254 E35.04222
G1 X158.302 Y172.765 E35.05406
G1 X158.159 Y172.292 E35.06589
G1 X157.95 Y171.845 E35.07771
G1 X157.678 Y171.433 E35.08953
G1 X157.347 Y171.064 E35.1014
