;FLAVOR:Marlin
;TIME:6805
;Filament used: 3.07658m
;Layer height: 0.12
;MINX:135.3
;MINY:98.3
;MINZ:0.12
;MAXX:174.7
;MAXY:228.7
;MAXZ:12
;Generated with Cura_SteamEngine 4.5.0
M140 S60
M105
M190 S60
M104 S205
M105
M109 S205
M82 ;absolute extrusion mode
M201 X500.00 Y500.00 Z100.00 E5000.00 ;Setup machine max acceleration
M203 X500.00 Y500.00 Z10.00 E50.00 ;Setup machine max feedrate
M204 P500.00 R1000.00 T500.00 ;Setup Print/Retract/Travel acceleration
M205 X8.00 Y8.00 Z0.40 E5.00 ;Setup Jerk
M220 S100 ;Reset Feedrate
M221 S100 ;Reset Flowrate

G28 ;Home
M420 S1 Z2 ;Enable ABL using saved Mesh and Fade Height

G92 E0 ;Reset Extruder
G1 Z2.0 F3000 ;Move Z Axis up
G1 X10.1 Y20 Z0.28 F5000.0 ;Move to start position
G1 X10.1 Y200.0 Z0.28 F1500.0 E15 ;Draw the first line
G1 X10.4 Y200.0 Z0.28 F5000.0 ;Move to side a little
G1 X10.4 Y20 Z0.28 F1500.0 E30 ;Draw the second line
G92 E0 ;Reset Extruder
G1 Z2.0 F3000 ;Move Z Axis up

G92 E0
G92 E0
G1 F1500 E-6
;LAYER_COUNT:100
;LAYER:0
M107
M205 X20 Y20
G0 F7500 X137.309 Y103.123 Z0.12
;TYPE:SKIRT
G1 F1500 E0
G1 X137.881 Y102.369 E0.02266
G1 X138.514 Y101.666 E0.04532
G1 X139.205 Y101.019 E0.06799
G1 X139.948 Y100.433 E0.09065
G1 X140.737 Y99.911 E0.1133
G1 X141.568 Y99.458 E0.13597
G1 X142.434 Y99.077 E0.15862
G1 X143.33 Y98.77 E0.18131
G1 X144.247 Y98.54 E0.20395
G1 X145.182 Y98.388 E0.22663
G1 X146.195 Y98.313 E0.25096
G1 X146.83 Y98.3 E0.26617
G1 X149.927 Y98.301 E0.34033
G1 X150.823 Y98.315 E0.36179
G1 X153.662 Y98.398 E0.4298
G1 X156.164 Y98.398 E0.48972
G1 X159.83 Y98.3 E0.57754
G1 X162.916 Y98.301 E0.65144
G1 X163.614 Y98.31 E0.66816
G1 X164.559 Y98.362 E0.69083
G1 X165.496 Y98.494 E0.71349
G1 X166.419 Y98.704 E0.73615
G1 X167.321 Y98.992 E0.75883
G1 X168.195 Y99.354 E0.78148
G1 X169.035 Y99.79 E0.80415
G1 X169.836 Y100.294 E0.82681
G1 X170.591 Y100.864 E0.84946
G1 X171.296 Y101.496 E0.87214
G1 X171.944 Y102.186 E0.89481
G1 X172.532 Y102.927 E0.91746
G1 X173.055 Y103.716 E0.94013
G1 X173.51 Y104.546 E0.96279
G1 X173.893 Y105.411 E0.98545
G1 X174.202 Y106.306 E1.00812
G1 X174.434 Y107.223 E1.03077
G1 X174.588 Y108.157 E1.05344
G1 X174.666 Y109.196 E1.07839
G1 X174.679 Y109.829 E1.09356
G1 X174.7 Y216.762 E3.65431
G1 X174.69 Y217.63 E3.6751
G1 X174.638 Y218.575 E3.69776
G1 X174.507 Y219.512 E3.72042
G1 X174.297 Y220.435 E3.74309
G1 X174.01 Y221.336 E3.76573
G1 X173.648 Y222.211 E3.78841
G1 X173.213 Y223.051 E3.81106
G1 X172.709 Y223.852 E3.83373
G1 X172.139 Y224.608 E3.8564
G1 X171.508 Y225.312 E3.87904
G1 X170.819 Y225.961 E3.90171
G1 X170.077 Y226.55 E3.92439
G1 X169.289 Y227.073 E3.94704
G1 X168.46 Y227.529 E3.9697
G1 X167.594 Y227.912 E3.99238
G1 X166.7 Y228.221 E4.01503
G1 X165.783 Y228.454 E4.03768
G1 X164.849 Y228.608 E4.06035
G1 X163.805 Y228.687 E4.08543
G1 X163.17 Y228.7 E4.10064
G1 X160.073 Y228.699 E4.1748
G1 X159.178 Y228.685 E4.19624
G1 X156.338 Y228.602 E4.26427
G1 X153.837 Y228.602 E4.32417
G1 X150.17 Y228.7 E4.41201
G1 X147.084 Y228.699 E4.48591
G1 X146.386 Y228.69 E4.50263
G1 X145.441 Y228.638 E4.5253
G1 X144.504 Y228.506 E4.54796
G1 X143.581 Y228.296 E4.57062
G1 X142.679 Y228.008 E4.5933
G1 X141.805 Y227.646 E4.61595
G1 X140.965 Y227.21 E4.63862
G1 X140.164 Y226.706 E4.66128
G1 X139.409 Y226.136 E4.68393
G1 X138.704 Y225.504 E4.70661
G1 X138.056 Y224.814 E4.72928
G1 X137.468 Y224.073 E4.75193
G1 X136.945 Y223.284 E4.7746
G1 X136.49 Y222.454 E4.79726
G1 X136.107 Y221.589 E4.81992
G1 X135.798 Y220.694 E4.84259
G1 X135.566 Y219.777 E4.86524
G1 X135.412 Y218.843 E4.88791
G1 X135.334 Y217.794 E4.9131
G1 X135.321 Y217.16 E4.92829
G1 X135.3 Y110.176 E7.49027
G1 X135.301 Y110.006 E7.49434
G1 X135.311 Y109.341 E7.51026
G1 X135.365 Y108.396 E7.53293
G1 X135.499 Y107.459 E7.5556
G1 X135.712 Y106.537 E7.57826
G1 X136.001 Y105.636 E7.60092
G1 X136.366 Y104.762 E7.6236
G1 X136.803 Y103.923 E7.64625
G1 X137.309 Y103.123 E7.66892
G0 F7500 X137.784 Y103.282
G1 F1500 X138.354 Y102.552 E7.6911
G1 X138.984 Y101.875 E7.71325
G1 X139.671 Y101.254 E7.73542
G1 X140.409 Y100.694 E7.75761
G1 X141.192 Y100.201 E7.77977
G1 X142.015 Y99.777 E7.80194
G1 X142.872 Y99.425 E7.82412
G1 X143.756 Y99.149 E7.8463
G1 X144.66 Y98.95 E7.86847
G1 X145.578 Y98.83 E7.89064
G1 X146.209 Y98.793 E7.90578
G1 X146.83 Y98.78 E7.92065
G1 X149.92 Y98.781 E7.99465
G1 X150.809 Y98.795 E8.01594
G1 X153.648 Y98.878 E8.08395
G1 X156.178 Y98.878 E8.14454
G1 X159.83 Y98.78 E8.23203
G1 X162.91 Y98.781 E8.30579
G1 X163.608 Y98.79 E8.3225
G1 X164.533 Y98.842 E8.34469
G1 X165.449 Y98.973 E8.36685
G1 X166.351 Y99.183 E8.38903
G1 X167.231 Y99.47 E8.41119
G1 X168.083 Y99.832 E8.43336
G1 X168.901 Y100.267 E8.45555
G1 X169.678 Y100.77 E8.47771
G1 X170.409 Y101.338 E8.49988
G1 X171.088 Y101.967 E8.52205
G1 X171.711 Y102.653 E8.54424
G1 X172.271 Y103.389 E8.56638
G1 X172.767 Y104.171 E8.58856
G1 X173.193 Y104.994 E8.61075
G1 X173.546 Y105.849 E8.6329
G1 X173.824 Y106.732 E8.65507
G1 X174.025 Y107.636 E8.67725
G1 X174.147 Y108.554 E8.69943
G1 X174.186 Y109.209 E8.71514
G1 X174.199 Y109.829 E8.72999
G1 X174.22 Y216.762 E11.29075
G1 X174.21 Y217.624 E11.31139
G1 X174.159 Y218.548 E11.33355
G1 X174.028 Y219.465 E11.35573
G1 X173.818 Y220.366 E11.37789
G1 X173.532 Y221.247 E11.40007
G1 X173.17 Y222.099 E11.42224
G1 X172.736 Y222.917 E11.44441
G1 X172.234 Y223.695 E11.46659
G1 X171.666 Y224.426 E11.48876
G1 X171.037 Y225.105 E11.51092
G1 X170.352 Y225.728 E11.53309
G1 X169.615 Y226.289 E11.55528
G1 X168.833 Y226.785 E11.57745
G1 X168.011 Y227.211 E11.59962
G1 X167.156 Y227.565 E11.62178
G1 X166.273 Y227.844 E11.64396
G1 X165.369 Y228.045 E11.66614
G1 X164.452 Y228.168 E11.68829
G1 X163.791 Y228.207 E11.70415
G1 X163.17 Y228.22 E11.71902
G1 X160.08 Y228.219 E11.79302
G1 X159.192 Y228.205 E11.81429
G1 X156.352 Y228.122 E11.88233
G1 X153.823 Y228.122 E11.94289
G1 X150.17 Y228.22 E12.0304
G1 X147.09 Y228.219 E12.10416
G1 X146.392 Y228.21 E12.12088
G1 X145.467 Y228.158 E12.14306
G1 X144.551 Y228.027 E12.16522
G1 X143.649 Y227.817 E12.1874
G1 X142.769 Y227.53 E12.20957
G1 X141.917 Y227.168 E12.23173
G1 X141.099 Y226.733 E12.25392
G1 X140.322 Y226.23 E12.27609
G1 X139.591 Y225.662 E12.29825
G1 X138.912 Y225.033 E12.32042
G1 X138.289 Y224.347 E12.34261
G1 X137.729 Y223.611 E12.36476
G1 X137.233 Y222.829 E12.38693
G1 X136.807 Y222.006 E12.40913
G1 X136.454 Y221.151 E12.43128
G1 X136.176 Y220.268 E12.45345
G1 X135.975 Y219.364 E12.47562
G1 X135.853 Y218.446 E12.4978
G1 X135.814 Y217.781 E12.51375
G1 X135.801 Y217.16 E12.52863
G1 X135.78 Y110.176 E15.0906
G1 X135.781 Y110.013 E15.09451
G1 X135.791 Y109.348 E15.11043
G1 X135.845 Y108.424 E15.1326
G1 X135.979 Y107.507 E15.15479
G1 X136.191 Y106.606 E15.17696
G1 X136.479 Y105.726 E15.19913
G1 X136.843 Y104.875 E15.2213
G1 X137.279 Y104.058 E15.24347
G1 X137.784 Y103.282 E15.26565
G0 F7500 X138.259 Y103.445
G1 F1500 X138.826 Y102.74 E15.28731
G1 X139.454 Y102.088 E15.30899
G1 X140.137 Y101.494 E15.33067
G1 X140.869 Y100.963 E15.35232
G1 X141.646 Y100.498 E15.37401
G1 X142.46 Y100.104 E15.39566
G1 X143.306 Y99.783 E15.41733
G1 X144.177 Y99.538 E15.439
G1 X145.067 Y99.371 E15.46068
G1 X146.222 Y99.273 E15.48844
G1 X146.83 Y99.26 E15.50301
G1 X149.913 Y99.261 E15.57684
G1 X150.795 Y99.274 E15.59796
G1 X153.668 Y99.358 E15.66679
G1 X156.191 Y99.358 E15.72721
G1 X159.83 Y99.26 E15.81438
G1 X162.904 Y99.261 E15.888
G1 X163.602 Y99.27 E15.90471
G1 X164.505 Y99.321 E15.92637
G1 X165.401 Y99.453 E15.94806
G1 X166.281 Y99.662 E15.96972
G1 X167.139 Y99.949 E15.99139
G1 X167.969 Y100.31 E16.01306
G1 X168.763 Y100.743 E16.03472
G1 X169.517 Y101.245 E16.05641
G1 X170.223 Y101.811 E16.07808
G1 X170.876 Y102.437 E16.09974
G1 X171.471 Y103.118 E16.1214
G1 X172.004 Y103.85 E16.14308
G1 X172.47 Y104.625 E16.16474
G1 X172.866 Y105.439 E16.18642
G1 X173.189 Y106.284 E16.20808
G1 X173.436 Y107.155 E16.22976
G1 X173.605 Y108.044 E16.25143
G1 X173.706 Y109.223 E16.27977
G1 X173.719 Y109.829 E16.29428
G1 X173.74 Y216.762 E18.85504
G1 X173.73 Y217.618 E18.87554
G1 X173.679 Y218.521 E18.8972
G1 X173.548 Y219.417 E18.91888
G1 X173.339 Y220.297 E18.94054
G1 X173.053 Y221.155 E18.9622
G1 X172.692 Y221.985 E18.98388
G1 X172.259 Y222.78 E19.00556
G1 X171.758 Y223.533 E19.02722
G1 X171.193 Y224.24 E19.04889
G1 X170.567 Y224.893 E19.07055
G1 X169.886 Y225.489 E19.09222
G1 X169.155 Y226.022 E19.11389
G1 X168.379 Y226.489 E19.13558
G1 X167.566 Y226.885 E19.15723
G1 X166.721 Y227.208 E19.1789
G1 X165.85 Y227.456 E19.20058
G1 X164.961 Y227.625 E19.22225
G1 X163.778 Y227.727 E19.25069
G1 X163.17 Y227.74 E19.26525
G1 X160.086 Y227.739 E19.3391
G1 X159.206 Y227.726 E19.36018
G1 X156.332 Y227.642 E19.42903
G1 X153.81 Y227.642 E19.48943
G1 X150.17 Y227.74 E19.57663
G1 X147.096 Y227.739 E19.65024
G1 X146.398 Y227.73 E19.66696
G1 X145.495 Y227.679 E19.68862
G1 X144.599 Y227.547 E19.71031
G1 X143.719 Y227.338 E19.73197
G1 X142.861 Y227.051 E19.75363
G1 X142.031 Y226.69 E19.77531
G1 X141.237 Y226.257 E19.79696
G1 X140.483 Y225.755 E19.81866
G1 X139.777 Y225.189 E19.84033
G1 X139.124 Y224.563 E19.86199
G1 X138.529 Y223.882 E19.88364
G1 X137.996 Y223.15 E19.90533
G1 X137.53 Y222.375 E19.92698
G1 X137.134 Y221.561 E19.94866
G1 X136.811 Y220.716 E19.97033
G1 X136.564 Y219.845 E19.99201
G1 X136.395 Y218.956 E20.01368
G1 X136.294 Y217.768 E20.04223
G1 X136.281 Y217.16 E20.05679
G1 X136.26 Y110.176 E22.61877
G1 X136.261 Y110.02 E22.62251
G1 X136.271 Y109.355 E22.63843
G1 X136.325 Y108.452 E22.66009
G1 X136.458 Y107.557 E22.68176
G1 X136.669 Y106.677 E22.70343
G1 X136.958 Y105.819 E22.72512
G1 X137.321 Y104.99 E22.74679
G1 X137.756 Y104.197 E22.76845
G1 X138.259 Y103.445 E22.79011
G1 F1500 E16.79011
;MESH:H-Profile.stl
G0 F7500 X163.26 Y217.26
;TYPE:WALL-OUTER
G1 F1500 E22.79011
G1 X159.74 Y217.26 E22.87441
G1 X159.74 Y205.26 E23.16177
G1 X150.26 Y205.26 E23.38879
G1 X150.26 Y217.26 E23.67616
G1 X146.761 Y217.26 E23.75995
G1 X146.74 Y110.041 E26.32756
G1 X146.74 Y109.74 E26.33477
G1 X150.26 Y109.74 E26.41906
G1 X150.26 Y121.74 E26.70643
G1 X159.74 Y121.74 E26.93345
G1 X159.74 Y109.74 E27.22082
G1 X163.239 Y109.74 E27.30461
G1 X163.26 Y216.959 E29.87221
G1 X163.26 Y217.26 E29.87942
G1 F1500 E23.87942
G0 F7500 X150.26 Y153.74
G1 F1500 E29.87942
G1 X159.74 Y153.74 E30.10644
G1 X159.74 Y141.26 E30.40531
G1 X150.26 Y141.26 E30.63233
G1 X150.26 Y153.74 E30.93119
G0 F7500 X149.78 Y154.22
;TYPE:WALL-INNER
G1 F1500 X160.22 Y154.22 E31.1812
G1 X160.22 Y140.78 E31.50305
G1 X149.78 Y140.78 E31.75306
G1 X149.78 Y154.22 E32.07491
G0 F7500 X149.3 Y154.7
G1 F1500 X160.7 Y154.7 E32.34791
G1 X160.7 Y140.3 E32.69275
G1 X149.3 Y140.3 E32.96575
G1 X149.3 Y154.7 E33.31059
G1 F1500 E27.31059
G0 F7500 X150.26 Y185.74
;TYPE:WALL-OUTER
G1 F1500 E33.31059
G1 X159.74 Y185.74 E33.53761
G1 X159.74 Y173.26 E33.83647
G1 X150.26 Y173.26 E34.06349
G1 X150.26 Y185.74 E34.36236
G0 F7500 X149.78 Y186.22
;TYPE:WALL-INNER
G1 F1500 X160.22 Y186.22 E34.61237
G1 X160.22 Y172.78 E34.93422
G1 X149.78 Y172.78 E35.18423
G1 X149.78 Y186.22 E35.50608
G0 F7500 X149.3 Y186.7
G1 F1500 X160.7 Y186.7 E35.77908
G1 X160.7 Y172.3 E36.12392
G1 X149.3 Y172.3 E36.39692
G1 X149.3 Y186.7 E36.74176
G1 F1500 E30.74176
G0 F7500 X162.78 Y216.78
G1 F1500 E36.74176
G1 X160.22 Y216.78 E36.80307
G1 X160.22 Y204.78 E37.09043
G1 X149.78 Y204.78 E37.34044
G1 X149.78 Y216.78 E37.62781
G1 X147.241 Y216.78 E37.68861
G1 X147.22 Y110.22 E40.24044
G1 X149.78 Y110.22 E40.30174
G1 X149.78 Y122.22 E40.58911
G1 X160.22 Y122.22 E40.83912
G1 X160.22 Y110.22 E41.12649
G1 X162.759 Y110.22 E41.18729
G1 X162.78 Y216.78 E43.73911
G0 F7500 X162.3 Y216.3
G1 F1500 X160.7 Y216.3 E43.77743
G1 X160.7 Y204.3 E44.0648
G1 X149.3 Y204.3 E44.33779
G1 X149.3 Y216.3 E44.62516
G1 X147.721 Y216.3 E44.66298
G1 X147.7 Y110.7 E47.19181
G1 X149.3 Y110.7 E47.23013
G1 X149.3 Y122.7 E47.51749
G1 X160.7 Y122.7 E47.79049
G1 X160.7 Y110.7 E48.07786
G1 X162.279 Y110.7 E48.11567
G1 X162.3 Y216.3 E50.64451
G0 F7500 X161.83 Y215.83
;TYPE:SKIN
G1 F1500 X161.17 Y215.83 E50.66031
G1 X161.17 Y203.83 E50.94768
G1 X148.83 Y203.83 E51.24319
G1 X148.83 Y215.83 E51.53056
G1 X148.191 Y215.83 E51.54586
G1 X148.17 Y111.17 E54.05218
G1 X148.83 Y111.17 E54.06799
G1 X148.83 Y123.17 E54.35536
G1 X161.17 Y123.17 E54.65087
G1 X161.17 Y111.17 E54.93823
G1 X161.809 Y111.17 E54.95354
G1 X161.83 Y215.83 E57.45986
G1 F1500 E51.45986
G0 F7500 X161.17 Y187.17
G1 F1500 E57.45986
G1 X161.17 Y171.83 E57.82721
G1 X148.83 Y171.83 E58.12272
G1 X148.83 Y187.17 E58.49007
G1 X161.17 Y187.17 E58.78558
G1 F1500 E52.78558
G0 F7500 X161.17 Y155.17
G1 F1500 E58.78558
G1 X161.17 Y139.83 E59.15293
G1 X148.83 Y139.83 E59.44844
G1 X148.83 Y155.17 E59.8158
G1 X161.17 Y155.17 E60.11131
G1 F1500 E54.11131
G0 F7500 X148.63 Y111.84
G1 F1500 E60.11131
G1 X148.37 Y111.84 E60.11753
G0 F7500 X148.37 Y112.32
G1 F1500 X148.63 Y112.32 E60.12376
G0 F7500 X148.63 Y112.8
G1 F1500 X148.37 Y112.8 E60.12998
G0 F7500 X148.37 Y113.28
G1 F1500 X148.63 Y113.28 E60.13621
G0 F7500 X148.63 Y113.76
G1 F1500 X148.37 Y113.76 E60.14244
G0 F7500 X148.37 Y114.24
G1 F1500 X148.63 Y114.24 E60.14866
G0 F7500 X148.63 Y114.72
G1 F1500 X148.37 Y114.72 E60.15489
G0 F7500 X148.37 Y115.2
G1 F1500 X148.63 Y115.2 E60.16112
G0 F7500 X148.63 Y115.68
G1 F1500 X148.37 Y115.68 E60.16734
G0 F7500 X148.37 Y116.16
G1 F1500 X148.63 Y116.16 E60.17357
G0 F7500 X148.63 Y116.64
G1 F1500 X148.371 Y116.64 E60.17977
G0 F7500 X148.371 Y117.12
G1 F1500 X148.63 Y117.12 E60.18597
G0 F7500 X148.63 Y117.6
G1 F1500 X148.371 Y117.6 E60.19218
G0 F7500 X148.371 Y118.08
G1 F1500 X148.63 Y118.08 E60.19838
G0 F7500 X148.63 Y118.56
G1 F1500 X148.371 Y118.56 E60.20458
G0 F7500 X148.371 Y119.04
G1 F1500 X148.63 Y119.04 E60.21078
G0 F7500 X148.63 Y119.52
G1 F1500 X148.371 Y119.52 E60.21698
G0 F7500 X148.371 Y120
G1 F1500 X148.63 Y120 E60.22319
G0 F7500 X148.63 Y120.48
G1 F1500 X148.371 Y120.48 E60.22939
G0 F7500 X148.371 Y120.96
G1 F1500 X148.63 Y120.96 E60.23559
G0 F7500 X148.63 Y121.44
G1 F1500 X148.372 Y121.44 E60.24177
G0 F7500 X148.372 Y121.92
G1 F1500 X148.63 Y121.92 E60.24795
G0 F7500 X148.63 Y122.4
G1 F1500 X148.372 Y122.4 E60.25413
G0 F7500 X148.372 Y122.88
G1 F1500 X148.63 Y122.88 E60.26031
G0 F7500 X148.63 Y123.36
G1 F1500 X148.372 Y123.36 E60.26648
G0 F7500 X148.372 Y123.84
G1 F1500 X161.612 Y123.84 E60.58355
G0 F7500 X161.612 Y123.36
G1 F1500 X161.37 Y123.36 E60.58934
G0 F7500 X161.37 Y122.88
G1 F1500 X161.612 Y122.88 E60.59514
G0 F7500 X161.612 Y122.4
G1 F1500 X161.37 Y122.4 E60.60093
G0 F7500 X161.37 Y121.92
G1 F1500 X161.612 Y121.92 E60.60673
G0 F7500 X161.612 Y121.44
G1 F1500 X161.37 Y121.44 E60.61252
G0 F7500 X161.37 Y120.96
G1 F1500 X161.611 Y120.96 E60.61829
G0 F7500 X161.611 Y120.48
G1 F1500 X161.37 Y120.48 E60.62406
G0 F7500 X161.37 Y120
G1 F1500 X161.611 Y120 E60.62984
G0 F7500 X161.611 Y119.52
G1 F1500 X161.37 Y119.52 E60.63561
G0 F7500 X161.37 Y119.04
G1 F1500 X161.611 Y119.04 E60.64138
G0 F7500 X161.611 Y118.56
G1 F1500 X161.37 Y118.56 E60.64715
G0 F7500 X161.37 Y118.08
G1 F1500 X161.611 Y118.08 E60.65292
G0 F7500 X161.611 Y117.6
G1 F1500 X161.37 Y117.6 E60.65869
G0 F7500 X161.37 Y117.12
G1 F1500 X161.611 Y117.12 E60.66446
G0 F7500 X161.611 Y116.64
G1 F1500 X161.37 Y116.64 E60.67023
G0 F7500 X161.37 Y116.16
G1 F1500 X161.61 Y116.16 E60.67598
G0 F7500 X161.61 Y115.68
G1 F1500 X161.37 Y115.68 E60.68173
G0 F7500 X161.37 Y115.2
G1 F1500 X161.61 Y115.2 E60.68748
G0 F7500 X161.61 Y114.72
G1 F1500 X161.37 Y114.72 E60.69322
G0 F7500 X161.37 Y114.24
G1 F1500 X161.61 Y114.24 E60.69897
G0 F7500 X161.61 Y113.76
G1 F1500 X161.37 Y113.76 E60.70472
G0 F7500 X161.37 Y113.28
G1 F1500 X161.61 Y113.28 E60.71047
G0 F7500 X161.61 Y112.8
G1 F1500 X161.37 Y112.8 E60.71621
G0 F7500 X161.37 Y112.32
G1 F1500 X161.61 Y112.32 E60.72196
G0 F7500 X161.61 Y111.84
G1 F1500 X161.37 Y111.84 E60.72771
G1 F1500 E54.72771
G0 F7500 X161.612 Y124.32
G1 F1500 E60.72771
G1 X148.372 Y124.32 E61.04477
G0 F7500 X148.372 Y124.8
G1 F1500 X161.612 Y124.8 E61.36183
G0 F7500 X161.612 Y125.28
G1 F1500 X148.372 Y125.28 E61.6789
G0 F7500 X148.372 Y125.76
G1 F1500 X161.612 Y125.76 E61.99596
G0 F7500 X161.612 Y126.24
G1 F1500 X148.372 Y126.24 E62.31302
